!!!COM: Music21
!!!OTL: Marcha Solemne do Antergo Reino de Galicia
!!!OMV: pezas_marchas_marcha-solemne-do-antergo-reino-de-galicia_marcha-solemne-do-antergo-reino-de-galicia-partitura.musicxml
**kern
*part1
*staff1
*I"Bagpipes
*I'Bag
*clefG^2
*k[]
*M4/4
*met(c)
=1
!LO:TX:a:t=Lento
*MM48
!LO:TX:a:t=[quarter]=48
2r
4b
4cc
=||
4.dd
16ccLL
16ddJJ
8eeL
16ddL
16eeJJ
16ffLL
16ee
16dd
16eeJJ
=
2cc
4ee
4ff
=||
4.gg
16ffLL
16ggJJ
8aaL
16ggL
16aaJJ
16bbLL
16aa
16gg
16aaJJ
=
2ff
4dd
4ee
=
4.ff
16eeLL
16ffJJ
8ggL
16ffL
16ggJJ
16aaLL
16gg
16ff
16ggJJ
!!linebreak:original
=
2ee
4ee
4ff
=||
4.gg
16ffLL
16ggJJ
8aaL
16ggL
16aaJJ
16bbLL
16aa
16gg
16aaJJ
=
2ff
4dd
4ee
=
4.ff
16eeLL
16ffJJ
8ggL
16ffL
16ggJJ
16aaLL
16gg
16ff
16ggJJ
!!linebreak:original
=
4ee
8ccL
8ccJ
8aaL
8gg
8ff
8eeJ
=||
4dd
16ddLL
16cc
16dd
16eeJJ
4dd
16ddLL
16cc
16dd
16eeJJ
=
4.dd
16ggLL
16aaJJ
8bbL
8ccc
8aa
8bbJ
=
4gg
16ggLL
16ff
16gg
16aaJJ
8ggL
16eeL
16ggJ
8ff
16ddL
16ffJJ
=
4ee
8eeL
8eeJ
8cccL
8bb
8aa
8ggJ
!!linebreak:original
=
4ff
16ffLL
16ee
16ff
16ggJJ
4ff
16ffLL
16ee
16ff
16ggJJ
=
4.ff
16ggLL
16aaJJ
8bbL
8ccc
8aa
8bbJ
=
4gg
16ggLL
16ff
16gg
16aaJJ
8ggL
16eeL
16ggJ
8ff
16ddL
16ffJJ
=||
2ee
4b
4cc
=||
8ee
8r
2.r
==
*-
!!!system-decoration: s1,s2
